icons/solid/message.svg

<svg width="24" height="24" viewBox="0 0 24 24" fill="none" xmlns="http://www.w3.org/2000/svg">
<path fill-rule="evenodd" clip-rule="evenodd" d="M5 3C3.34315 3 2 4.34315 2 6V15C2 16.6569 3.34315 18 5 18C5.55228 18 6 18.4477 6 19V19.9691C6 21.6285 7.90418 22.5661 9.21942 21.5544L13.5705 18.2074C13.7453 18.0729 13.9597 18 14.1802 18H19C20.6569 18 22 16.6569 22 15V6C22 4.34315 20.6569 3 19 3H5Z" fill="currentColor"/>
</svg>

<svg width="24" height="24" fill="none" xmlns="http://www.w3.org/2000/svg"><path fill-rule="evenodd" clip-rule="evenodd" d="M5 3a3 3 0 00-3 3v9a3 3 0 003 3 1 1 0 011 1v.97c0 1.659 1.904 2.596 3.22 1.584l4.35-3.347a1 1 0 01.61-.207H19a3 3 0 003-3V6a3 3 0 00-3-3H5z" fill="currentColor"/></svg>
